Adwaita++-Dark/apps/16/sm.puri.Chatty.svg

<svg height="16" width="16" xmlns="http://www.w3.org/2000/svg">
  <g fill="#e6ddff">
    <path d="m4 1c-1.662 0-3 1.338-3 3v6c0 1.662 1.338 3 3 3h8c1.662 0 3-1.338 3-3v-6c0-1.662-1.338-3-3-3zm2 3a.99999845.99999845 0 0 1 1 1 .99999845.99999845 0 0 1 -1 1 .99999845.99999845 0 0 1 -1-1 .99999845.99999845 0 0 1 1-1zm4 0a.99999845.99999845 0 0 1 1 1 .99999845.99999845 0 0 1 -1 1 .99999845.99999845 0 0 1 -1-1 .99999845.99999845 0 0 1 1-1zm-5.015625 3.0644531h1c0 .68645.3761106 1.322125 1.0019531 1.671875.6258425.349775 1.4015013.349775 2.0273438 0 .6258425-.34975 1.0019531-.985425 1.0019531-1.671875h1c0 1.053875-.582492 2.0245219-1.5136719 2.5449219-.93118.5204-2.0727262.5204-3.0039062 0s-1.5136719-1.4910469-1.5136719-2.5449219z"/>
    <path d="m12 12v4l-3.9999996-4z"/>
  </g>
</svg>

<svg xmlns="http://www.w3.org/2000/svg" width="16" height="16" version="1.1">
 <g fill="#E6DDFF">
  <path d="M 4 1 C 2.338 1 1 2.338 1 4 L 1 10 C 1 11.662 2.338 13 4 13 L 12 13 C 13.662 13 15 11.662 15 10 L 15 4 C 15 2.338 13.662 1 12 1 L 4 1 z M 6 4 A 0.99999845 0.99999845 0 0 1 7 5 A 0.99999845 0.99999845 0 0 1 6 6 A 0.99999845 0.99999845 0 0 1 5 5 A 0.99999845 0.99999845 0 0 1 6 4 z M 10 4 A 0.99999845 0.99999845 0 0 1 11 5 A 0.99999845 0.99999845 0 0 1 10 6 A 0.99999845 0.99999845 0 0 1 9 5 A 0.99999845 0.99999845 0 0 1 10 4 z M 4.984375 7.0644531 L 5.984375 7.0644531 C 5.984375 7.7509031 6.3604856 8.3865781 6.9863281 8.7363281 C 7.6121706 9.0861031 8.3878294 9.0861031 9.0136719 8.7363281 C 9.6395144 8.3865781 10.015625 7.7509031 10.015625 7.0644531 L 11.015625 7.0644531 C 11.015625 8.1183281 10.433133 9.088975 9.5019531 9.609375 C 8.5707731 10.129775 7.4292269 10.129775 6.4980469 9.609375 C 5.5668669 9.088975 4.984375 8.1183281 4.984375 7.0644531 z"/>
  <path d="m 12,12 v 4 L 8.0000004,12 Z"/>
 </g>
</svg>
